X:2540
T:Polska från Västmanland
T:Svenska Folkdansar H4 nr 18
O:Västmanland
B:Traditioner av Svenska Folkdansar Häfte 4, nr 18
R:Polska
Z:Nils L
M:3/4
L:1/8
K:Dm
A | A>d A2 G2 | F>E D2 E2 | F>G A2 B>G | A2 A,2 z ::
A | A>^c d2 e2 | f>d e2 A2 | G>A F2 E>^C | D2 D2 z :|
(:musicend:)
(:music:)
